svgs/solid/rainbow.svg

<svg xmlns="http://www.w3.org/2000/svg" viewBox="0 0 640 512"><!-- Font Awesome Pro 6.0.0-alpha2 by @fontawesome - https://fontawesome.com License - https://fontawesome.com/license (Commercial License) --><path d="M312.301 32.092C137.602 36.217 0 183.254 0 358.002V464C0 472.836 7.164 480 16 480H48C56.838 480 64 472.836 64 464V357.1C64 213.869 181.209 93.602 324.42 96.037C463.545 98.404 576 212.32 576 352V464C576 472.836 583.164 480 592 480H624C632.838 480 640 472.836 640 464V352C640 172.986 492.258 27.842 312.301 32.092ZM313.549 224.16C244.793 227.553 192 286.873 192 355.715V464C192 472.836 199.164 480 208 480H240C248.838 480 256 472.836 256 464V354.258C256 320.197 281.652 290.412 315.637 288.146C352.9 285.662 384 315.275 384 352V464C384 472.836 391.164 480 400 480H432C440.838 480 448 472.836 448 464V352C448 279.283 387.045 220.531 313.549 224.16ZM313.223 128.102C191.389 131.717 96 234.877 96 356.764V464C96 472.836 103.164 480 112 480H144C152.838 480 160 472.836 160 464V355.934C160 269.293 227.236 195.398 313.814 192.117C404.838 188.668 480 261.729 480 352V464C480 472.836 487.164 480 496 480H528C536.838 480 544 472.836 544 464V352C544 226.232 439.818 124.344 313.223 128.102Z"/></svg>

<svg xmlns="http://www.w3.org/2000/svg" viewBox="0 0 640 512"><!--! Font Awesome Pro 6.0.0-alpha3 by @fontawesome - https://fontawesome.com License - https://fontawesome.com/license (Commercial License) --><path d="M312.3 32.09C137.6 36.22 0 183.3 0 358V464C0 472.8 7.164 480 16 480h32C56.84 480 64 472.8 64 464v-106.9c0-143.2 117.2-263.5 260.4-261.1C463.5 98.4 576 212.3 576 352v112c0 8.836 7.164 16 16 16h32c8.838 0 16-7.164 16-16V352C640 172.1 492.3 27.84 312.3 32.09zM313.5 224.2C244.8 227.6 192 286.9 192 355.7V464C192 472.8 199.2 480 208 480h32C248.8 480 256 472.8 256 464v-109.7c0-34.06 25.65-63.85 59.64-66.11C352.9 285.7 384 315.3 384 352v112c0 8.836 7.164 16 16 16h32c8.838 0 16-7.164 16-16V352C448 279.3 387 220.5 313.5 224.2zM313.2 128.1C191.4 131.7 96 234.9 96 356.8V464C96 472.8 103.2 480 112 480h32C152.8 480 160 472.8 160 464v-108.1c0-86.64 67.24-160.5 153.8-163.8C404.8 188.7 480 261.7 480 352v112c0 8.836 7.164 16 16 16h32c8.838 0 16-7.164 16-16V352C544 226.2 439.8 124.3 313.2 128.1z"/></svg>
